svg/furkot/mapbox-maki/cricket.svg

<svg viewBox="0 0 512 512" xmlns="http://www.w3.org/2000/svg"><path d="m242.616 54.857c0 30.297-24.562 54.858-54.858 54.858-30.295 0-54.856-24.561-54.856-54.858s24.561-54.857 54.856-54.857c30.296 0 54.858 24.561 54.858 54.857zm105.326 207.726-73.143-73.143c-3.603-4.329-9-6.758-14.63-6.582h-172.981c-13.766-.311-25.572 9.76-27.429 23.406l-36.572 281.599c-.249 1.697-.249 3.423 0 5.12 0 10.098 8.189 18.286 18.285 18.286 8.234.56 15.782-4.575 18.287-12.435l43.885-142.263 9.509-30.354 14.628 16.092 41.692 45.348v106.058c0 10.096 8.189 18.285 18.285 18.285 10.097 0 18.287-8.189 18.287-18.285v-109.715c-.297-2.881-1.302-5.646-2.927-8.046l-52.662-65.097 36.572-91.428h62.536l73.144 67.292c3.393 3.937 8.331 6.205 13.531 6.216 9.374-1.13 16.347-9.212 16.091-18.651-.011-4.301-1.568-8.456-4.388-11.703zm114.102 149.577c-15.147 0-27.427 12.28-27.427 27.429 0 15.148 12.28 27.429 27.427 27.429s27.429-12.281 27.429-27.429c0-15.149-12.28-27.429-27.429-27.429zm-118.491-55.955v-27.061c0-5.051-4.092-9.144-9.142-9.144-5.051 0-9.143 4.093-9.143 9.144v27.061c-5.566 3.128-9.048 8.979-9.144 15.36v122.15c0 10.096 8.189 18.285 18.287 18.285s18.285-8.189 18.285-18.285v-122.15c-.095-6.381-3.576-12.232-9.143-15.36z"/></svg>

<svg viewBox="0 0 512 512" xmlns="http://www.w3.org/2000/svg"><path d="M 242.616 54.857 C 242.616 85.154 218.054 109.715 187.758 109.715 C 157.463 109.715 132.902 85.154 132.902 54.857 C 132.902 24.56 157.463 0 187.758 0 C 218.054 0 242.616 24.561 242.616 54.857 Z M 347.942 262.583 L 347.942 262.583 L 274.799 189.44 L 274.799 189.44 L 274.799 189.44 C 271.196 185.111 265.799 182.682 260.169 182.858 L 87.188 182.858 C 73.422 182.547 61.616 192.618 59.759 206.264 L 59.759 206.264 L 23.187 487.863 L 23.187 487.863 C 22.938 489.56 22.938 491.286 23.187 492.983 C 23.187 503.081 31.376 511.269 41.472 511.269 C 49.706 511.829 57.254 506.694 59.759 498.834 L 59.759 498.834 L 103.644 356.571 L 103.644 356.571 L 113.153 326.217 L 127.781 342.309 L 127.781 342.309 L 169.473 387.657 L 169.473 493.715 C 169.473 503.811 177.662 512 187.758 512 C 197.855 512 206.045 503.811 206.045 493.715 L 206.045 384 L 206.045 384 L 206.045 384 C 205.748 381.119 204.743 378.354 203.118 375.954 L 203.118 375.954 L 150.456 310.857 L 187.028 219.429 L 249.564 219.429 L 322.708 286.721 L 322.708 286.721 C 326.101 290.658 331.039 292.926 336.239 292.937 C 345.613 291.807 352.586 283.725 352.33 274.286 C 352.319 269.985 350.762 265.83 347.942 262.583 Z M 462.044 412.16 C 446.897 412.16 434.617 424.44 434.617 439.589 C 434.617 454.737 446.897 467.018 462.044 467.018 C 477.191 467.018 489.473 454.737 489.473 439.589 C 489.473 424.44 477.193 412.16 462.044 412.16 Z M 343.553 356.205 L 343.553 329.144 C 343.553 324.093 339.461 320 334.411 320 C 329.36 320 325.268 324.093 325.268 329.144 L 325.268 356.205 C 319.702 359.333 316.22 365.184 316.124 371.565 L 316.124 493.715 C 316.124 503.811 324.313 512 334.411 512 C 344.509 512 352.696 503.811 352.696 493.715 L 352.696 371.565 C 352.601 365.184 349.12 359.333 343.553 356.205 Z"/></svg>
